dist/images/info/img2.svg

<svg width="34" height="34" viewBox="0 0 34 34" fill="none" xmlns="http://www.w3.org/2000/svg">
<path d="M17.047 18.3287C20.6599 18.3287 23.5994 15.3894 23.5994 11.7765C23.5994 8.16357 20.6599 5.22405 17.047 5.22405C13.4341 5.22405 10.4946 8.16357 10.4946 11.7765C10.4948 15.3894 13.4341 18.3287 17.047 18.3287ZM17.047 7.88056C19.1954 7.88056 20.9429 9.62814 20.9429 11.7765C20.9429 13.9248 19.1954 15.6724 17.047 15.6724C14.8987 15.6724 13.1511 13.9248 13.1511 11.7765C13.1511 9.62814 14.8987 7.88056 17.047 7.88056ZM31.3721 29.0904L27.534 17.1313C31.5135 9.36978 25.8689 0 17.047 0C8.22066 0 2.58312 9.37471 6.55998 17.1313L2.7219 29.0904C2.38053 30.1547 3.4311 31.1404 4.47129 30.7329L8.5654 29.1283L10.6349 33.267C11.1233 34.2436 12.5218 34.2449 13.0107 33.267L17.047 25.1947L21.0833 33.267C21.5715 34.2436 22.9701 34.2449 23.4591 33.267L25.5283 29.1283L29.6227 30.7329C30.6634 31.1407 31.7135 30.1542 31.3721 29.0904ZM17.047 2.65625C22.0757 2.65625 26.167 6.74751 26.167 11.7765C26.167 16.8052 22.0757 20.8965 17.047 20.8965C12.018 20.8965 7.92676 16.8052 7.92676 11.7765C7.92676 6.74751 12.018 2.65625 17.047 2.65625ZM11.8229 29.7031L10.3988 26.8549C10.0915 26.2404 9.36591 25.9615 8.72623 26.2123L6.10577 27.239L8.4785 19.8462C10.1802 21.6521 12.4442 22.9221 14.9881 23.3724L11.8229 29.7031ZM25.3678 26.2123C24.7281 25.9615 24.0026 26.2404 23.6952 26.8549L22.2711 29.7031L19.1059 23.3724C21.6498 22.9221 23.9138 21.6521 25.6155 19.8464L27.9882 27.2393L25.3678 26.2123Z" fill="#0D0D0D"/>
<path d="M17.0471 18.3287C20.66 18.3287 23.5995 15.3895 23.5995 11.7766C23.5995 8.16364 20.66 5.22412 17.0471 5.22412C13.4341 5.22412 10.4946 8.16364 10.4946 11.7766C10.4949 15.3895 13.4341 18.3287 17.0471 18.3287ZM17.0471 7.88063C19.1954 7.88063 20.943 9.62821 20.943 11.7766C20.943 13.9249 19.1954 15.6725 17.0471 15.6725C14.8987 15.6725 13.1511 13.9249 13.1511 11.7766C13.1511 9.62821 14.8987 7.88063 17.0471 7.88063Z" fill="#0D0D0D"/>
</svg>

<svg width="34" height="34" fill="none" xmlns="http://www.w3.org/2000/svg"><path d="M17.047 18.329a6.56 6.56 0 006.552-6.553 6.56 6.56 0 00-6.552-6.552 6.56 6.56 0 00-6.552 6.553 6.56 6.56 0 006.552 6.552zm0-10.448a3.9 3.9 0 013.896 3.896 3.9 3.9 0 01-3.896 3.895 3.9 3.9 0 01-3.896-3.896 3.9 3.9 0 013.896-3.895zm14.325 21.21l-3.838-11.96C31.514 9.37 25.869 0 17.047 0 8.221 0 2.583 9.375 6.56 17.131l-3.838 11.96c-.341 1.064.71 2.05 1.75 1.642l4.093-1.605 2.07 4.139c.488.977 1.887.978 2.376 0l4.036-8.072 4.036 8.072c.489.977 1.887.978 2.376 0l2.07-4.139 4.094 1.605c1.04.408 2.09-.579 1.75-1.643zM17.047 2.655c5.029 0 9.12 4.092 9.12 9.12 0 5.03-4.091 9.12-9.12 9.12-5.029 0-9.12-4.09-9.12-9.12 0-5.028 4.091-9.12 9.12-9.12zm-5.224 27.047l-1.424-2.848a1.328 1.328 0 00-1.673-.643l-2.62 1.027 2.373-7.393a11.766 11.766 0 006.51 3.526l-3.166 6.331zm13.545-3.49a1.328 1.328 0 00-1.673.642l-1.424 2.848-3.165-6.33a11.767 11.767 0 006.51-3.527l2.372 7.393-2.62-1.027z" fill="#0D0D0D"/><path d="M17.047 18.329a6.56 6.56 0 006.552-6.552 6.56 6.56 0 00-6.552-6.553 6.56 6.56 0 00-6.552 6.553 6.56 6.56 0 006.552 6.552zm0-10.448a3.9 3.9 0 013.896 3.896 3.9 3.9 0 01-3.896 3.896 3.9 3.9 0 01-3.896-3.896 3.9 3.9 0 013.896-3.896z" fill="#0D0D0D"/></svg>
